remix/Map/footprint-fill.svg

<svg viewBox="0 0 24 24" fill="currentColor" xmlns="http://www.w3.org/2000/svg"><path d="M4 18.0001H9.5V19.2501C9.5 20.7688 8.26878 22.0001 6.75 22.0001C5.23122 22.0001 4 20.7688 4 19.2501V18.0001ZM8 6.12067C10 6.12067 11 9.00006 11 11.0001C11 12.0001 10.5 13.0001 10 14.5001L9.5 16.0001H4C4 15.0001 3.5 13.5001 3.5 11.0001C3.5 8.50006 5.49783 6.12067 8 6.12067ZM20.054 14.0984L19.8369 15.3294C19.5732 16.8251 18.1468 17.8238 16.6511 17.5601C15.1554 17.2964 14.1567 15.87 14.4205 14.3743L14.6375 13.1433L20.054 14.0984ZM18.1776 1.70488C20.6417 2.13938 22.196 4.82954 21.7619 7.29156C21.3278 9.75358 20.5749 11.144 20.4013 12.1288L14.9848 11.1737L14.7529 9.60967C14.5209 8.04564 14.2022 6.974 14.3758 5.9892C14.7231 4.01958 16.2079 1.35759 18.1776 1.70488Z"/></svg>

<svg viewBox="0 0 24 24" xmlns="http://www.w3.org/2000/svg"><path fill="none" d="M0 0h24v24H0Z"/><path d="M4 18h5.5v1.25 0C9.5 20.76 8.26 22 6.75 22 5.23 22 4 20.76 4 19.25V18ZM8 6.12c2 0 3 2.88 3 4.88 0 1-.5 2-1 3.5L9.5 16H4c0-1-.5-2.5-.5-5s1.99-4.88 4.5-4.88Zm12.05 7.978l-.22 1.23 -.001 0c-.27 1.49-1.7 2.49-3.19 2.23 -1.5-.27-2.5-1.7-2.24-3.19l.21-1.23 5.416.95Zm-1.88-12.4c2.46.43 4.01 3.12 3.58 5.586 -.44 2.46-1.19 3.85-1.36 4.83l-5.417-.96 -.24-1.564c-.24-1.564-.55-2.64-.38-3.62 .34-1.97 1.83-4.632 3.8-4.285Z"/></svg>
